!! 00000] TT[WS
!!!OTL: Pao yangyu
!!!ARE: Asia, China, Shanxi Jiaocheng
!! Ethnic Group: Han
!! WII, 41
!!!SCT: J0454
!!!YEM: Copyright 1995, estate of Helmut Schaffrath.
**kern
*ICvox
*Ivox
!! Mixed meters:  2/4; 3/4
*M3/4
*k[]
*C:
{8r
8a
8ee
16dd
16cc
=1
8dd
4.a
=2
8cc
16b
16a
8g
16e
16g
4a}
=3
*M2/4
{8r
8a
8ee
16dd
16cc
=4
8dd
4.e
=5
*M3/4
16g
16g
16g
16a
16e
16d
8c
4d}
=6
*M2/4
{8r
8a
8ee
16dd
16cc
=7
8dd
4.a
=8
*M3/4
8cc
16b
16a
8g
16e
16g
4a}
=9
*M2/4
{8r
8a
16ee
16dd
16cc
16a
=10
8cc
4.e
=11
16g
16g
16g
16a
16e
16d
8c
=12
2d}
==
!!!AGN: Xiaodiao, Tiange. Laodong, Shouhuo
!!!ONB: ESAC (Essen Associative Code) Database: CHINA
!!!AMT: irregular
!!!AIN: vox
!!!EED: Helmut Schaffrath
!!!EEV: 1.0
*-
